X:1
T:Autumn Jig
M:6/8
L:1/8
Q:100
C:(c) Greg Anderson, 11 Dec 1999
R:Jig
H:A tune for easy fall days in France
K:G
D|GAB FBF|EGE D2 D|EFG Agd|cAF DAF|GAB FBF|!
EGE D2 D|EFG Ddc|1BAF G2:|2BAF GBd||ege d2 B|cBA G2 D|!
EGE DGA|BdB ABd|ege dBG|cBA G2 D|EFG Ddc|BAF GBd|ege d2 B|!
cBA G2 D|EGE DGA|BdB ABd|ege dBG|cdc B2 D|EFG ABd|ged G2||
